svg/filled/usb.svg

<svg width="24" height="24" viewBox="0 0 24 24" fill="none" xmlns="http://www.w3.org/2000/svg">
<path d="M7.50009 7H16.5001V16.5C16.5001 18.9853 14.4854 21 12.0001 21V21C9.51481 21 7.50009 18.9853 7.50009 16.5V7Z" fill="black"/>
<path fill-rule="evenodd" clip-rule="evenodd" d="M9.00009 3H15.0001V8H9.00009V3ZM10.0001 4V7H14.0001V4H10.0001Z" fill="black"/>
</svg>

<svg xmlns="http://www.w3.org/2000/svg" viewBox="0 0 24 24" fill="currentColor">
  <path d="M7.5 7h9v9.5a4.5 4.5 0 11-9 0V7z"/>
  <path fill-rule="evenodd" d="M9 3h6v5H9V3zm1 1v3h4V4h-4z" clip-rule="evenodd"/>
</svg>
